MonoIcons/scalable/status/bluetooth-hardware-disabled-symbolic.svg

<?xml version="1.0" encoding="UTF-8"?>
<svg height="16px" viewBox="0 0 16 16" width="16px" xmlns="http://www.w3.org/2000/svg">
    <path d="m 7.957031 0 c -0.128906 0.0078125 -0.253906 0.0390625 -0.371093 0.0898438 c -0.355469 0.1640622 -0.585938 0.5195312 -0.585938 0.9101562 v 4 h 2 v -1.796875 l 1.480469 1.296875 l -0.570313 0.5 h 2.953125 c 0.238281 -0.414062 0.152344 -0.9375 -0.207031 -1.25 l -4 -3.5 c -0.191406 -0.171875 -0.445312 -0.2578125 -0.699219 -0.25 z m -3.867187 4.007812 c -0.316406 -0.03125 -0.632813 0.09375 -0.839844 0.335938 c -0.15625 0.183594 -0.242188 0.414062 -0.238281 0.65625 h 2.507812 l -0.863281 -0.75 c -0.15625 -0.140625 -0.355469 -0.226562 -0.566406 -0.242188 z m -1.078125 6.992188 c -0.003907 0.242188 0.082031 0.472656 0.238281 0.65625 c 0.363281 0.417969 0.992188 0.457031 1.40625 0.09375 l 0.863281 -0.75 z m 3.988281 0 v 4 c 0 0.390625 0.230469 0.746094 0.585938 0.910156 c 0.359374 0.160156 0.777343 0.101563 1.070312 -0.160156 l 4 -3.5 c 0.359375 -0.3125 0.445312 -0.835938 0.207031 -1.25 h -2.953125 l 0.570313 0.5 l -1.480469 1.296875 v -1.796875 z m 0 0" fill="#2e3434" fill-opacity="0.34902"/>
    <path d="m 0 6 h 16 v 4 h -16 z m 0 0" fill="#2e3436"/>
</svg>

<svg width="16" height="16" viewBox="0 0 16 16" fill="none" xmlns="http://www.w3.org/2000/svg">
<g clip-path="url(#clip0_231_952)">
<path d="M7.95716 5.66593e-07C7.82825 0.00781307 7.70325 0.0390631 7.58607 0.0898444C7.2306 0.253907 7.00013 0.609376 7.00013 1V5H9.00013V3.20313L10.4806 4.5L9.91028 5H12.8634C13.1017 4.58594 13.0158 4.0625 12.6564 3.75L8.65638 0.250001C8.46497 0.0781256 8.21107 -0.00781193 7.95716 5.66593e-07V5.66593e-07ZM4.08997 4.00781C3.77357 3.97656 3.45716 4.10156 3.25013 4.34375C3.09388 4.52734 3.00794 4.75781 3.01185 5H5.51966L4.65638 4.25C4.50013 4.10938 4.30091 4.02344 4.08997 4.00781ZM3.01185 11C3.00794 11.2422 3.09388 11.4727 3.25013 11.6563C3.61341 12.0742 4.24232 12.1133 4.65638 11.75L5.51966 11H3.01185ZM7.00013 11V15C7.00013 15.3906 7.2306 15.7461 7.58607 15.9102C7.94544 16.0703 8.36341 16.0117 8.65638 15.75L12.6564 12.25C13.0158 11.9375 13.1017 11.4141 12.8634 11H9.91028L10.4806 11.5L9.00013 12.7969V11H7.00013Z" fill="#2E3436" fill-opacity="0.5"/>
<path d="M0 6H16V10H0V6Z" fill="#2E3436"/>
</g>
<defs>
<clipPath id="clip0_231_952">
<rect width="16" height="16" fill="white"/>
</clipPath>
</defs>
</svg>
